Numix-Light-GalliumOS/16/status/gpm-keyboard-040.svg

<?xml version="1.0" encoding="UTF-8" standalone="no"?>
<!-- Created with Inkscape (http://www.inkscape.org/) -->

<svg
   xmlns:dc="http://purl.org/dc/elements/1.1/"
   xmlns:cc="http://creativecommons.org/ns#"
   xmlns:rdf="http://www.w3.org/1999/02/22-rdf-syntax-ns#"
   xmlns:svg="http://www.w3.org/2000/svg"
   xmlns="http://www.w3.org/2000/svg"
   xmlns:sodipodi="http://sodipodi.sourceforge.net/DTD/sodipodi-0.dtd"
   xmlns:inkscape="http://www.inkscape.org/namespaces/inkscape"
   id="svg3014"
   height="16"
   width="16"
   version="1.1"
   inkscape:version="0.91 r"
   sodipodi:docname="gpm-keyboard-040.svg">
  <defs
     id="defs10" />
  <sodipodi:namedview
     pagecolor="#ffffff"
     bordercolor="#666666"
     borderopacity="1"
     objecttolerance="10"
     gridtolerance="10"
     guidetolerance="10"
     inkscape:pageopacity="0"
     inkscape:pageshadow="2"
     inkscape:window-width="1366"
     inkscape:window-height="747"
     id="namedview8"
     showgrid="true"
     inkscape:zoom="15.170655"
     inkscape:cx="-5.3637538"
     inkscape:cy="-1.6347023"
     inkscape:window-x="0"
     inkscape:window-y="21"
     inkscape:window-maximized="1"
     inkscape:current-layer="svg3014">
    <inkscape:grid
       type="xygrid"
       id="grid4141" />
  </sodipodi:namedview>
  <metadata
     id="metadata3019">
    <rdf:RDF>
      <cc:Work
         rdf:about="">
        <dc:format>image/svg+xml</dc:format>
        <dc:type
           rdf:resource="http://purl.org/dc/dcmitype/StillImage" />
        <dc:title />
      </cc:Work>
    </rdf:RDF>
  </metadata>
  <path
     style="opacity:0.4;fill:#353535;fill-opacity:1"
     d="M 4.3339844 0 C 3.5953178 0 3 0.56639349 3 1.2714844 L 3 14.728516 C 3 15.433606 3.5953178 16 4.3339844 16 L 11.666016 16 C 12.404682 16 13 15.433606 13 14.728516 L 13 1.2714844 C 13 0.56639343 12.404682 -1.4802974e-16 11.666016 0 L 4.3339844 0 z M 5.3007812 2 L 6.6992188 2 C 6.8654187 2 7 2.1345812 7 2.3007812 L 7 3.6992188 C 7 3.8654187 6.8654188 4 6.6992188 4 L 5.3007812 4 C 5.1345813 4 5 3.8654188 5 3.6992188 L 5 2.3007812 C 5 2.1345813 5.1345812 2 5.3007812 2 z M 9.3007812 2 L 10.699219 2 C 10.865419 2 11 2.1345812 11 2.3007812 L 11 3.6992188 C 11 3.8654188 10.865419 4 10.699219 4 L 9.3007812 4 C 9.1345812 4 9 3.8654188 9 3.6992188 L 9 2.3007812 C 9 2.1345812 9.1345812 2 9.3007812 2 z M 5.3007812 5 L 6.6992188 5 C 6.8654187 5 7 5.1345812 7 5.3007812 L 7 6.6992188 C 7 6.8654187 6.8654188 7 6.6992188 7 L 5.3007812 7 C 5.1345813 7 5 6.8654188 5 6.6992188 L 5 5.3007812 C 5 5.1345813 5.1345812 5 5.3007812 5 z M 9.3007812 5 L 10.699219 5 C 10.865419 5 11 5.1345812 11 5.3007812 L 11 10.699219 C 11 10.865419 10.865419 11 10.699219 11 L 9.3007812 11 C 9.1345813 11 9 10.865419 9 10.699219 L 9 5.3007812 C 9 5.1345813 9.1345813 5 9.3007812 5 z M 5.3007812 8 L 6.6992188 8 C 6.8654187 8 7 8.1345817 7 8.3007812 L 7 9.6992188 C 7 9.8654183 6.8654188 10 6.6992188 10 L 5.3007812 10 C 5.1345813 10 5 9.8654183 5 9.6992188 L 5 8.3007812 C 5 8.1345817 5.1345812 8 5.3007812 8 z M 5.3007812 11 L 6.6992188 11 C 6.8654187 11 7 11.134581 7 11.300781 L 7 12 L 9.3007812 12 L 10.699219 12 C 10.865419 12 11 12.134581 11 12.300781 L 11 13.699219 C 11 13.865419 10.865419 14 10.699219 14 L 9.3007812 14 L 6.6992188 14 L 5.3007812 14 C 5.1345813 14 5 13.865419 5 13.699219 L 5 12.300781 L 5 11.300781 C 5 11.134581 5.1345812 11 5.3007812 11 z "
     id="path3081-2" />
  <path
     style="opacity:1;fill:#353535;fill-opacity:1"
     d="M 3,9.5996094 3,14.728516 C 3,15.433606 3.595318,16 4.3339844,16 l 7.3320316,0 C 12.404682,16 13,15.433606 13,14.728516 l 0,-5.1289066 -2,0 0,1.0996096 C 11,10.865419 10.865419,11 10.699219,11 L 9.3007812,11 C 9.1345813,11 9,10.865419 9,10.699219 l 0,-1.0996096 -2,0 0,0.099609 C 7,9.8654183 6.8654187,10 6.6992188,10 L 5.3007812,10 C 5.1345813,10 5,9.8654183 5,9.6992188 l 0,-0.099609 -2,0 z M 5.3007812,11 6.6992188,11 C 6.8654188,11 7,11.134581 7,11.300781 L 7,12 9.3007812,12 10.699219,12 C 10.865419,12 11,12.134581 11,12.300781 l 0,1.398438 C 11,13.865419 10.865419,14 10.699219,14 L 9.3007812,14 6.6992188,14 5.3007812,14 C 5.1345813,14 5,13.865419 5,13.699219 l 0,-1.398438 0,-1 C 5,11.134581 5.1345813,11 5.3007812,11 Z"
     id="path3081-2-3"
     inkscape:connector-curvature="0" />
</svg>

<svg xmlns="http://www.w3.org/2000/svg" viewBox="0 0 16 16">
 <path d="m 4.334 0 c -0.739 0 -1.334 0.566 -1.334 1.271 l 0 13.457 c 0 0.705 0.595 1.271 1.334 1.271 l 7.332 0 c 0.739 0 1.334 -0.566 1.334 -1.271 l 0 -13.457 c 0 -0.705 -0.595 -1.271 -1.334 -1.271 l -7.332 0 z m 0.967 2 l 1.398 0 c 0.166 0 0.301 0.135 0.301 0.301 l 0 1.398 c 0 0.166 -0.135 0.301 -0.301 0.301 l -1.398 0 c -0.166 0 -0.301 -0.135 -0.301 -0.301 l 0 -1.398 c 0 -0.166 0.135 -0.301 0.301 -0.301 z m 4 0 l 1.398 0 c 0.166 0 0.301 0.135 0.301 0.301 l 0 1.398 c 0 0.166 -0.135 0.301 -0.301 0.301 l -1.398 0 c -0.166 0 -0.301 -0.135 -0.301 -0.301 l 0 -1.398 c 0 -0.166 0.135 -0.301 0.301 -0.301 z m -4 3 l 1.398 0 c 0.166 0 0.301 0.135 0.301 0.301 l 0 1.398 c 0 0.166 -0.135 0.301 -0.301 0.301 l -1.398 0 c -0.166 0 -0.301 -0.135 -0.301 -0.301 l 0 -1.398 c 0 -0.166 0.135 -0.301 0.301 -0.301 z m 4 0 l 1.398 0 c 0.166 0 0.301 0.135 0.301 0.301 l 0 5.398 c 0 0.166 -0.135 0.301 -0.301 0.301 l -1.398 0 c -0.166 0 -0.301 -0.135 -0.301 -0.301 l 0 -5.398 c 0 -0.166 0.135 -0.301 0.301 -0.301 z m -4 3 l 1.398 0 c 0.166 0 0.301 0.135 0.301 0.301 l 0 1.398 c 0 0.166 -0.135 0.301 -0.301 0.301 l -1.398 0 c -0.166 0 -0.301 -0.135 -0.301 -0.301 l 0 -1.398 c 0 -0.166 0.135 -0.301 0.301 -0.301 z m 0 3 l 1.398 0 c 0.166 0 0.301 0.135 0.301 0.301 l 0 0.699 l 2.301 0 l 1.398 0 c 0.166 0 0.301 0.135 0.301 0.301 l 0 1.398 c 0 0.166 -0.135 0.301 -0.301 0.301 l -1.398 0 l -2.602 0 l -1.398 0 c -0.166 0 -0.301 -0.135 -0.301 -0.301 l 0 -1.398 l 0 -1 c 0 -0.166 0.135 -0.301 0.301 -0.301 z" style="fill:#353535;opacity:0.4;fill-opacity:1"/>
 <path d="m 3 9.6 0 5.129 c 0 0.705 0.595 1.271 1.334 1.271 l 7.332 0 c 0.739 0 1.334 -0.566 1.334 -1.271 l 0 -5.129 -2 0 0 1.1 c 0 0.166 -0.135 0.301 -0.301 0.301 l -1.398 0 c -0.166 0 -0.301 -0.135 -0.301 -0.301 l 0 -1.1 -2 0 0 0.1 c 0 0.166 -0.135 0.301 -0.301 0.301 l -1.398 0 c -0.166 0 -0.301 -0.135 -0.301 -0.301 l 0 -0.1 -2 0 z m 2.301 1.4 1.398 0 c 0.166 0 0.301 0.135 0.301 0.301 l 0 0.699 2.301 0 1.398 0 c 0.166 0 0.301 0.135 0.301 0.301 l 0 1.398 c 0 0.166 -0.135 0.301 -0.301 0.301 l -1.398 0 -2.602 0 -1.398 0 c -0.166 0 -0.301 -0.135 -0.301 -0.301 l 0 -1.398 0 -1 c 0 -0.166 0.135 -0.301 0.301 -0.301" style="fill:#353535;opacity:1;fill-opacity:1"/>
</svg>
